X: 670
T: Indian Ate the Woodchuck
C:Ed Haley
B: jims roots
M:4/4
L:1/8
Q: 1/4=100
K:D
V:1 
%Z:AK/Fiddler's Companion
|:"D"faab afde | "G"faba bafe | "D"faab afdf |  "A"edfd efde |
"D"faab afde | "G"faba bafe | "D"faab afdf | [1 "A"eddA "D"d2d2:| [2 "A"eddA "D"d2 fe ||
|: "D"dBAF DEFA | "G"Bdef e2d2 | "D"BdAF EFA2 | [1 "A"Bcde fdde :| [2 "A"Bcde "D"fd d2 ||
|: "Bm"B2 Bc BAFE | "D"FAAB AFDF | A2 AB AF A2  |  "A"defd efdA ||
"Bm"B2 Bc BAFE | "D"FAAB AFDF | A3A defd | "A"eddA "D"d2d2 :|
% abcbook-tune_id 6298c25d9fed4c076ed3f1cb


% abcbook-boost 0
% abcbook-tablature 
% abcbook-transpose 
% abcbook-lastupdated 1654178399008
% abcbook-soundfonts 
% abcbook-repeats 1


